X: 05
T: RUFTY TUFTY
B: "FIFTY OLD ENGLISH FOLK DANCE AIRS", Edgar H. Hunt ed., Schott & Co. Ltd. pub., London 1939
Z: 2004-2014 John Chambers <jc:trillian.mit.edu>
M: 2/2
L: 1/4
K: G
|:\
d2 de | f2 ef |\
gg f>e |[1 d4 :|[2 d3 \
|: (e/f/) |\
gf ed | (dc) B>c | dd cB |
[1 A2 G :|[2 A2 G2 |:\
B>c dd | ec d2 |\
B>c dd | ec d (B/c/) |\
dd cB | A2 G2 :|

%%sep 1 1 500
%%sep 1 1 500
